packages/tokens/icons/crm/size16Px.svg

<svg viewBox="0 0 16 16" fill="none" xmlns="http://www.w3.org/2000/svg" width="1em" height="1em"><rect x="1.5" y="2.5" width="13" height="11" rx="1.5" stroke="currentColor"/><path d="M1.5 4.5L14.5 4.5" stroke="currentColor"/><path d="M3.5 7.5L6.5 7.5M3.5 9.5H6.5M3.5 11.5H6.5" stroke="currentColor" stroke-linecap="round"/><circle cx="10.5" cy="8.5" r="1" stroke="currentColor"/><path d="M8.5 13V12.5C8.5 11.9477 8.94772 11.5 9.5 11.5H11.5C12.0523 11.5 12.5 11.9477 12.5 12.5V13" stroke="currentColor" stroke-linecap="round"/></svg>

<svg xmlns="http://www.w3.org/2000/svg" fill="none" viewBox="0 0 16 16" width="1em" height="1em"><rect width="13" height="11" x="1.5" y="2.5" stroke="currentColor" rx="1.5"/><path stroke="currentColor" d="M1.5 4.5h13"/><path stroke="currentColor" stroke-linecap="round" d="M3.5 7.5h3m-3 2h3m-3 2h3"/><circle cx="10.5" cy="8.5" r="1" stroke="currentColor"/><path stroke="currentColor" stroke-linecap="round" d="M8.5 13v-.5a1 1 0 0 1 1-1h2a1 1 0 0 1 1 1v.5"/></svg>
